X: 88
T: POLKA: Johnny I Do Miss You
C: C: Trad.; S: De Danann; Johnny O'Leary
C: Set Leaders: Sophie, Anton, Tania
Z: [Unedited]; jr347 at The Session
N: https://thesession.org/members/26966/sets/99393
R: Polka
M: 2/4
L: 1/8
Q: 1/4=140
K: Dmaj
d>B|:AF ED|F2 A,F|GB AF|E2 d>B|
AF ED|F2 A,F|GEFE|D2:||
A>G|FA A/B/A/G/|FA A>G|FA Bc|d2 dA|
FA A/B/A/G/|FA de|fe ed|e2 eA|
FA A/B/A/G/|FA A>G|FA Bc|d2 d>B|
AF ED|F2 A,F|GEFE|D2||

